source/images/logo-gray.svg

<svg width="140" height="51" viewBox="0 0 140 51" fill="none" xmlns="http://www.w3.org/2000/svg">
<path d="M40.7833 28.9568C41.8216 29.9951 42.32 31.5733 42.32 33.6499V41.7071H37.3778V34.4805C37.3778 33.4838 37.2117 32.7777 36.8379 32.2794C36.4641 31.8225 35.9242 31.5733 35.2597 31.5733C34.5122 31.5733 33.9308 31.8225 33.4739 32.3624C33.0171 32.9023 32.8094 33.6914 32.8094 34.7297V41.7071H27.8673V34.4805C27.8673 32.5701 27.1613 31.6148 25.7492 31.6148C25.0017 31.6148 24.3787 31.864 23.9219 32.4039C23.465 32.9439 23.2574 33.733 23.2574 34.7713V41.7486H18.2737V27.6278H20.3502C21.5131 27.6278 22.4683 28.583 22.4683 29.7459C23.2158 28.7491 24.1295 28.1262 24.8771 27.8354C25.5831 27.5447 26.3722 27.4201 27.2443 27.4201C28.241 27.4201 29.1132 27.5862 29.9023 27.96C30.6914 28.3338 31.3143 28.8737 31.8127 29.6213C32.3526 28.9153 33.0586 28.3753 33.9308 28.0016C34.7614 27.6278 35.7166 27.4201 36.7133 27.4201C38.3745 27.4201 39.7451 27.9185 40.7833 28.9568Z" fill="#D4D3E3"/>
<path d="M59.8872 27.6277V41.707H57.8937C56.7308 41.707 55.7756 40.7518 55.7756 39.5889C54.6128 41.3333 52.91 41.9562 51.0411 41.9562C49.7537 41.9562 48.5908 41.6655 47.5525 41.0425C46.5143 40.4611 45.6837 39.5889 45.0607 38.4675C44.4377 37.3462 44.147 36.0587 44.147 34.6051C44.147 33.1515 44.4377 31.864 45.0607 30.7841C45.6837 29.7043 46.5143 28.8321 47.5525 28.2507C48.5908 27.6692 49.7537 27.3785 51.0411 27.3785C52.7024 27.3785 54.0313 27.8769 54.945 28.8321V27.6277H59.8872ZM54.1975 37.1385C54.7374 36.5571 55.0281 35.7264 55.0281 34.6466C55.0281 33.6083 54.7374 32.7777 54.1975 32.1962C53.6576 31.6148 52.9515 31.324 52.0794 31.324C51.2073 31.324 50.5012 31.6148 49.9613 32.1962C49.4214 32.7777 49.1307 33.6083 49.1307 34.6466C49.1307 35.6849 49.4214 36.5155 49.9613 37.1385C50.5012 37.72 51.2073 38.0522 52.0794 38.0522C52.9515 38.0522 53.6576 37.72 54.1975 37.1385Z" fill="#D4D3E3"/>
<path d="M63.8744 40.6272C62.9191 39.7551 62.4208 38.4676 62.4208 36.8063V22.4362H67.3629V36.5156C67.3629 37.0555 67.4875 37.4293 67.7782 37.72C68.0274 38.0107 68.4427 38.1353 68.8996 38.1353C69.3149 38.1353 69.6887 38.0523 70.0209 37.8861L70.2286 41.5825C69.481 41.8317 68.7334 41.9563 67.9028 41.9563C66.1585 41.9563 64.8296 41.4994 63.8744 40.6272Z" fill="#D4D3E3"/>
<path d="M15.7817 27.6278V41.7071H13.7882C12.6253 41.7071 11.6701 40.7519 11.6701 39.589C10.5073 41.3333 8.80451 41.9563 6.93563 41.9563C5.64818 41.9563 4.48532 41.6656 3.44705 41.0426C2.40878 40.4612 1.57817 39.589 0.955206 38.4676C0.290715 37.3878 0 36.1003 0 34.6467C0 33.1931 0.290715 31.9056 0.913675 30.8257C1.53664 29.7459 2.36725 28.8737 3.40552 28.2923C4.44378 27.7108 5.60664 27.4201 6.8941 27.4201C8.55532 27.4201 9.88431 27.9185 10.798 28.8737V27.6693H15.7817V27.6278ZM10.092 37.1386C10.6319 36.5571 10.9226 35.7265 10.9226 34.6467C10.9226 33.6084 10.6319 32.7777 10.092 32.1963C9.55206 31.6148 8.84604 31.3241 7.97389 31.3241C7.10175 31.3241 6.39573 31.6148 5.85583 32.1963C5.31593 32.7777 5.02521 33.6084 5.02521 34.6467C5.02521 35.685 5.31593 36.5156 5.85583 37.1386C6.39573 37.72 7.10175 38.0523 7.97389 38.0523C8.80451 38.0523 9.51053 37.72 10.092 37.1386Z" fill="#D4D3E3"/>
<path d="M139.792 41.5409C133.853 43.0775 133.189 39.3812 134.726 34.9373C137.384 27.3369 138.629 21.8962 135.432 16.2479C132.608 11.3471 125.049 11.9286 125.049 11.9286C125.049 11.9286 122.889 0.341146 109.973 0.00889058C91.4091 -0.447961 81.1925 16.7878 83.269 31.9054C84.7641 42.6207 91.7413 47.8953 99.6321 47.8953C105.613 47.8953 108.977 45.3203 110.928 42.2054C109.309 42.9114 107.357 43.4098 105.031 43.4513C101.335 43.4929 98.1786 42.33 95.8528 40.0042C93.5687 37.7199 92.3643 34.6466 92.3643 30.9087C92.3643 29.4966 92.4889 28.1676 92.6965 26.9216C92.8211 27.1708 92.9042 27.3785 93.0703 27.6277C93.7763 28.7905 94.8561 29.4966 96.102 29.7043C96.3097 29.7458 96.4758 29.7458 96.6419 29.7458C96.725 29.7458 96.7665 29.7458 96.8496 29.7458L99.0092 31.8639C99.1753 32.03 99.3414 32.0716 99.5491 32.0716C99.7567 32.0716 99.9229 31.9885 100.089 31.8639C100.38 31.5732 100.38 31.1163 100.089 30.8256L99.0922 29.8288C101.584 27.7938 101.792 25.0111 101.792 24.1805C101.875 23.2253 102.29 22.9761 102.747 23.0591C103.162 23.1007 103.494 23.5575 103.328 24.5128C103.328 24.5958 103.287 24.6374 103.287 24.7204C103.162 25.0527 103.079 25.3849 102.996 25.7172C102.705 27.2123 102.996 28.7075 103.744 29.9119C104.491 31.1579 105.696 31.9885 107.066 32.2377C107.357 32.2792 107.648 32.3208 107.938 32.3208C109.018 32.3208 110.056 31.947 110.97 31.2409C111.842 30.5764 112.507 29.6627 112.88 28.5829C113.005 28.2506 113.088 27.9184 113.171 27.5861C113.254 27.2539 113.254 26.9216 113.254 26.5894C113.254 26.4648 113.254 26.3402 113.254 26.2156L114.749 24.9696H113.088C112.59 23.0176 111.095 21.4394 109.143 21.0656C107.232 20.7333 105.363 21.564 104.201 23.1422C103.993 22.6438 103.578 22.2285 103.038 22.1039C102.415 21.9793 101.792 22.187 101.335 22.6853C100.837 20.8164 99.466 19.3628 97.6802 19.1136C97.2649 19.0721 96.8496 19.0721 96.4343 19.1551C99.2168 15.9156 102.872 14.2544 107.274 14.2544C111.053 14.2544 114.168 15.4173 116.452 17.7846C118.57 19.9027 119.691 22.6853 119.899 26.0494L114.542 27.2539C114.251 27.2954 114.085 27.5446 114.085 27.8353C114.126 28.0845 114.334 28.2922 114.583 28.2922C114.625 28.2922 114.625 28.2922 114.666 28.2922L119.899 27.0877C119.899 28.9151 119.65 30.2442 119.276 32.1131L119.235 32.2377L117.615 39.2566C116.161 46.8154 120.439 50.5948 127.25 50.5948C134.726 50.5948 140 44.9465 140 44.9465L139.792 41.5409ZM108.229 21.9793C108.437 21.9793 108.686 21.9793 108.893 22.0208C110.015 22.2285 110.97 22.9761 111.551 23.9313C111.635 24.3882 111.635 25.0527 111.302 25.6341C111.261 25.6757 111.261 25.6757 111.219 25.7172C111.219 25.7172 111.136 25.8833 110.97 26.0494C110.804 26.2571 110.596 26.4648 110.306 26.6309C109.849 26.8801 109.267 27.0877 108.52 26.9216C107.523 26.6724 107.191 25.8002 107.108 25.0527C107.066 24.6374 106.692 24.3466 106.277 24.3882C105.862 24.4297 105.571 24.8035 105.613 25.2188C105.82 26.9216 106.775 28.0845 108.229 28.3752C108.395 28.4168 108.603 28.4168 108.769 28.4168C109.143 28.4168 109.475 28.4168 109.807 28.3337C110.596 28.1676 111.302 27.7938 111.884 27.2123L112.133 27.0047C112.133 27.0877 112.133 27.1708 112.091 27.2539C112.008 27.7938 111.842 28.2506 111.593 28.7075C111.261 29.3305 110.845 29.8704 110.306 30.2442C109.392 30.9502 108.312 31.2409 107.232 31.0333C106.152 30.8256 105.239 30.2026 104.616 29.2059C103.993 28.2091 103.785 26.9631 103.993 25.7587C104.408 23.5991 106.236 21.9793 108.229 21.9793ZM96.2266 28.6244C95.3129 28.4998 94.5239 27.9599 93.984 27.0462C93.5687 26.3817 93.361 25.5926 93.3195 24.8035C93.3195 24.5128 93.3195 24.1805 93.361 23.8482C93.5271 22.6854 94.067 21.6471 94.8561 20.941C95.5206 20.3596 96.2682 20.0273 97.0572 20.0273C97.1818 20.0273 97.3479 20.0273 97.4725 20.0688C99.0507 20.2765 100.172 21.7301 100.38 23.516C100.338 23.5575 100.338 23.6406 100.297 23.6821C100.255 23.7652 100.214 23.8067 100.172 23.8898C99.7983 24.4297 99.2168 24.845 98.3862 24.6789C97.8048 24.5543 97.348 23.9728 97.2234 23.4329C97.1818 23.2668 97.1818 23.1007 97.1818 22.9761C97.1818 22.9761 97.1818 22.9761 97.1818 22.9345V22.7684V22.7269L97.2234 22.0208H94.7315L95.6867 23.0591C95.6867 23.3083 95.7283 23.5991 95.7698 23.8482C96.019 24.8035 96.8496 25.9248 98.0955 26.174C98.1786 26.174 98.2616 26.2156 98.3447 26.2156C99.5075 26.2986 100.047 25.5926 100.047 25.5926L100.131 25.6341C100.006 26.0494 99.8398 26.5063 99.5906 27.0047C98.8846 28.0014 97.8879 28.5829 96.8081 28.6244C96.5589 28.6244 96.3927 28.6244 96.2266 28.6244Z" fill="#D4D3E3"/>
<path d="M104.948 33.8575C104.741 34.1898 103.952 35.2696 102.955 35.062C102.332 34.9374 101.917 34.5221 101.667 33.816C101.543 33.4422 101.127 33.193 100.712 33.3176C100.338 33.4422 100.089 33.8575 100.214 34.2729C100.588 35.4773 101.46 36.2664 102.623 36.5156C102.789 36.5571 102.996 36.5571 103.162 36.5571C104.284 36.5571 105.364 35.8511 106.153 34.6467C106.36 34.3144 106.277 33.8575 105.945 33.6084C105.654 33.4007 105.197 33.5253 104.948 33.8575Z" fill="#D4D3E3"/>
<path d="M114.874 35.1865C114.293 35.1865 113.794 35.6434 113.794 36.2248C113.794 36.8063 114.251 37.2631 114.874 37.2631C115.456 37.2631 115.954 36.8063 115.954 36.2248C115.912 35.6434 115.456 35.1865 114.874 35.1865Z" fill="#D4D3E3"/>
</svg>

<svg width="140" height="51" fill="none" xmlns="http://www.w3.org/2000/svg"><path d="M40.783 28.957c1.039 1.038 1.537 2.616 1.537 4.693v8.057h-4.942V34.48c0-.996-.166-1.702-.54-2.2-.374-.457-.914-.707-1.578-.707-.748 0-1.33.25-1.786.79-.457.54-.665 1.328-.665 2.367v6.977h-4.942V34.48c0-1.91-.706-2.865-2.118-2.865-.747 0-1.37.249-1.827.789-.457.54-.665 1.329-.665 2.367v6.978h-4.983V27.628h2.076c1.163 0 2.118.955 2.118 2.118.748-.997 1.662-1.62 2.41-1.91.705-.291 1.494-.416 2.366-.416.997 0 1.87.166 2.658.54.79.374 1.412.914 1.91 1.661.54-.706 1.247-1.246 2.119-1.62a6.807 6.807 0 012.782-.58c1.661 0 3.032.498 4.07 1.536zm19.104-1.329v14.079h-1.993a2.127 2.127 0 01-2.118-2.118c-1.163 1.744-2.866 2.367-4.735 2.367-1.287 0-2.45-.29-3.488-.914-1.039-.58-1.87-1.453-2.492-2.575-.623-1.12-.914-2.408-.914-3.862 0-1.453.29-2.741.914-3.82.623-1.08 1.453-1.953 2.492-2.534 1.038-.582 2.2-.873 3.488-.873 1.661 0 2.99.499 3.904 1.454v-1.204h4.942zm-5.69 9.51c.54-.58.831-1.412.831-2.491 0-1.039-.29-1.87-.83-2.45-.54-.582-1.246-.873-2.119-.873-.872 0-1.578.29-2.118.872-.54.582-.83 1.412-.83 2.45 0 1.039.29 1.87.83 2.492.54.582 1.246.914 2.118.914.873 0 1.579-.332 2.118-.913zm9.677 3.489c-.955-.872-1.453-2.16-1.453-3.82v-14.37h4.942v14.079c0 .54.124.913.415 1.204.25.29.665.415 1.122.415.415 0 .789-.083 1.12-.249l.209 3.697a7.183 7.183 0 01-2.326.373c-1.745 0-3.073-.457-4.029-1.329zM15.782 27.628v14.08h-1.994a2.127 2.127 0 01-2.118-2.119c-1.163 1.744-2.865 2.367-4.734 2.367-1.288 0-2.45-.29-3.489-.913-1.038-.582-1.869-1.454-2.492-2.575C.291 37.388 0 36.1 0 34.647c0-1.454.29-2.741.914-3.821.623-1.08 1.453-1.952 2.492-2.534 1.038-.581 2.2-.872 3.488-.872 1.661 0 2.99.498 3.904 1.454v-1.205h4.984v-.041zm-5.69 9.51c.54-.58.83-1.411.83-2.491 0-1.039-.29-1.87-.83-2.45-.54-.582-1.246-.873-2.118-.873-.872 0-1.578.29-2.118.872-.54.582-.83 1.412-.83 2.45 0 1.039.29 1.87.83 2.493.54.581 1.246.913 2.118.913.83 0 1.537-.332 2.118-.913zm129.7 4.402c-5.939 1.538-6.603-2.159-5.066-6.603 2.658-7.6 3.903-13.04.706-18.69-2.824-4.9-10.383-4.318-10.383-4.318S122.889.34 109.973.009c-18.564-.457-28.78 16.779-26.704 31.896 1.495 10.716 8.472 15.99 16.363 15.99 5.981 0 9.345-2.575 11.296-5.69-1.619.706-3.571 1.205-5.897 1.246-3.696.042-6.852-1.121-9.178-3.447-2.284-2.284-3.489-5.357-3.489-9.095 0-1.412.125-2.741.332-3.987.125.249.208.456.374.706.706 1.163 1.786 1.869 3.032 2.076.208.042.374.042.54.042h.208l2.16 2.118c.165.166.331.208.54.208.207 0 .373-.084.539-.208a.727.727 0 000-1.038l-.997-.997c2.492-2.035 2.7-4.818 2.7-5.649.083-.955.498-1.204.955-1.12.415.04.747.498.581 1.453 0 .083-.041.124-.041.207a8.922 8.922 0 00-.291.997c-.291 1.495 0 2.99.748 4.195.747 1.246 1.952 2.076 3.322 2.326.291.041.582.083.872.083 1.08 0 2.118-.374 3.032-1.08a5.635 5.635 0 001.91-2.658c.125-.332.208-.665.291-.997.083-.332.083-.664.083-.997v-.373l1.495-1.246h-1.661c-.498-1.952-1.993-3.53-3.945-3.904-1.911-.333-3.78.498-4.942 2.076-.208-.498-.623-.913-1.163-1.038-.623-.125-1.246.083-1.703.581-.498-1.869-1.869-3.322-3.655-3.571a4.186 4.186 0 00-1.246.041c2.783-3.24 6.438-4.9 10.84-4.9 3.779 0 6.894 1.162 9.178 3.53 2.118 2.118 3.239 4.9 3.447 8.264l-5.357 1.205c-.291.041-.457.29-.457.581.041.25.249.457.498.457h.083l5.233-1.204c0 1.827-.249 3.156-.623 5.025l-.041.125-1.62 7.019c-1.454 7.558 2.824 11.338 9.635 11.338 7.476 0 12.75-5.648 12.75-5.648l-.208-3.406zm-31.563-19.56c.208 0 .457 0 .664.04 1.122.209 2.077.956 2.658 1.911.084.457.084 1.122-.249 1.703l-.083.083s-.083.166-.249.332a2.312 2.312 0 01-.664.582c-.457.25-1.039.457-1.786.29-.997-.249-1.329-1.12-1.412-1.868a.75.75 0 00-.831-.665.75.75 0 00-.664.83c.207 1.704 1.162 2.866 2.616 3.157.166.042.374.042.54.042.374 0 .706 0 1.038-.083a4.09 4.09 0 002.077-1.122l.249-.207c0 .083 0 .166-.042.249-.083.54-.249.997-.498 1.453-.332.623-.748 1.163-1.287 1.537-.914.706-1.994.997-3.074.79-1.08-.208-1.993-.831-2.616-1.828-.623-.997-.831-2.243-.623-3.447.415-2.16 2.243-3.78 4.236-3.78zm-12.002 6.644c-.914-.124-1.703-.664-2.243-1.578-.415-.664-.623-1.453-.664-2.242 0-.291 0-.623.041-.956.166-1.163.706-2.2 1.495-2.907.665-.581 1.412-.914 2.201-.914.125 0 .29 0 .415.042 1.579.207 2.7 1.661 2.908 3.447-.042.042-.042.125-.083.166-.042.083-.083.125-.125.208-.374.54-.955.955-1.786.789-.581-.125-1.038-.706-1.163-1.246-.041-.166-.041-.332-.041-.457v-.249l.041-.706h-2.492l.956 1.038c0 .25.041.54.083.79.249.954 1.08 2.076 2.326 2.325.083 0 .166.042.249.042 1.162.083 1.702-.623 1.702-.623l.084.041a8.489 8.489 0 01-.54 1.37c-.706.997-1.703 1.579-2.783 1.62h-.581z" fill="#D4D3E3"/><path d="M104.948 33.858c-.207.332-.996 1.412-1.993 1.204-.623-.125-1.038-.54-1.288-1.246a.779.779 0 00-.955-.498.779.779 0 00-.498.955c.374 1.204 1.246 1.993 2.409 2.243.166.041.373.041.539.041 1.122 0 2.202-.706 2.991-1.91a.788.788 0 00-.208-1.039c-.291-.207-.748-.083-.997.25zm9.926 1.329c-.581 0-1.08.456-1.08 1.038 0 .581.457 1.038 1.08 1.038.582 0 1.08-.457 1.08-1.038-.042-.582-.498-1.038-1.08-1.038z" fill="#D4D3E3"/></svg>
